X: 1
T: l'Air de l'Allemande    [D]
C: Andr\'e Campra 1702
R: allemande, march
Z: 2017 John Chambers <jc:trillian.mit.edu>
B: Andr\'e Campra "Fragments de Mr. de Lully, Ballet" 1702 p._
S: page image from Darlene Wigton 2018-11-4
M: C|
L: 1/8
K: D
A2 |\
"D"d2A2 F2A2 | d2A2 F2d2 |\
"A7"e2f2 gfef | "(D)"dcde "D"d2A2 |\
"D"d2A2 F2A2 | d2A2 F2d2 |\
"A7"e2f2 gfef | "D"d6 ::\
cd |\
"A7"e4 e4 | e4 "D"f4 |
"G(Em)"g2f2 e2d2 | "A7"edcB A2cd |\
e2c2 A2cd | edcB A2cd ||\
"A7"e4e4 | e4 "D"f4 |\
"Em"g2f2 "(E7)"e2d2 | "A7"a4 g4 |\
"D"fga2 "A7"e4 | "D"d6 :|

%%sep 1 1 500

